X:1
T:Lord, Send Me
T:Lord, Send Me
T:M. W. Spencer
T:M. W. Spencer, 1893
T:Public Domain Courtesy of the Cyber Hymnal™
T:Public Domain Courtesy of the Cyber Hymnal™
C:M. W. Spencer
Z:Public Domain
Z:Courtesy of the Cyber Hymnal™
%%score ( 1 2 ) 3
L:1/8
Q:1/4=93
M:4/4
K:Eb
V:1 treble 
V:2 treble 
V:3 bass 
V:1
 [EG]>[FA] [GB]>[Ac] [GB]2 [EG]2 | [GB]>[GB] [Fc]>[Ad] [Ge]4 | [Ac]>[Ad] [Ae]>[Ac] [GB]2 [EG]2 | %3
w: 1.~There is much to do, there’s|work on ev- ery hand;|Hark! the cry for help comes|
w: 2.~There’s the plain- tive cry of|mourn- ing souls dis- tressed,|And the sigh of hearts who|
w: 3.~There are hun- gering souls who|cry a- loud for bread;|With the Bread of Life they’re|
w: 4.~There are souls who lin- ger|on the brink of woe;|Lord, I must not, can- not|
 [EG]>[EG] [B,F]>E [DF]4 | [EG]>[FA] [GB]>[Ac] [GB]2 [EG]2 | [GB]>[GB] [Ac]>[Ad] [Ge]4 | %6
w: ring- ing thro’ the land;|Je- sus calls for reap- ers,|I must ac- tive be;|
w: seek but find no rest;|These should have my love and|ten- der sym- pa- thy;|
w: long- ing to be fed;|Shall they starve and fam- ish|while a feast is free?|
w: bear to let them go;|Let me go and tell them,|bro- ther, turn and flee;|
 [Ac]>[Ad] [Ae]>[Ac] [GB]2 [EG]2 | [EG]>[DF] [B,E]>[B,D] [B,E]4 ||"^Refrain" B6 G2 | e6 z2 | %10
w: What wilt Thou, O Mas- ter?|Here am I, send me.|||
w: Rea- dy at Thy bid- ding,|here am I, send me.|Here am|I;|
w: I must be more faith- ful;|here am I, send me.|||
w: Mas- ter, I would save them;|here am I, send me.|||
 c6 x2 | B6 z2 | B6 G2 | e6 z2 | [Ac]>[Ad] [Ae]>[Ac] [GB]2 E2 | [B,G]2 [B,F]2 [B,E]4 |] x8 |] %17
w: |||||||
w: Lord,|send|me; Here|am|I, rea- dy at Thy bid-|ding, Lord send||
w: |||||||
w: |||||||
V:2
 x8 | x8 | x8 | x7/2 E/ x4 | x8 | x8 | x8 | x8 || (G>GG>G G2) x2 | (G2 A2 G2) x2 | (A>AA>A A2) e2 | %11
 (G2 F2 G2) x2 | (G>GG>G G2) x2 | (G2 A2 G2) x2 | x6 E2 | x8 |] x8 |] %17
V:3
 [E,B,]>[E,B,] [E,E]>[E,E] [E,E]2 [E,B,]2 | [B,,E]>[B,,E] [B,,B,]>[B,,B,] [E,B,]4 | %2
w: ~ ~ ~ ~ ~ ~|~ ~ ~ ~ ~|
 [A,E]>[A,E] [A,C]>[A,E] [E,E]2 [E,B,]2 | [E,B,]>[E,B,] [D,B,]>[C,G,] [B,,B,]4 | %4
w: ~ ~ ~ ~ ~ ~|~ ~ ~ ~ ~|
 [E,B,]>[E,B,] [E,E]>[E,E] [E,E]2 [E,B,]2 | [B,,E]>[B,,E] [B,,B,]>[B,,B,] [E,B,]4 | %6
w: ~ ~ ~ ~ ~ ~|~ ~ ~ ~ ~|
 [A,E]>[A,E] [A,C]>[A,E] [E,E]2 [E,B,]2 | [B,,B,]>[B,,A,] [B,,G,]>[B,,F,] x4 || [E,G,]4 x4 | %9
w: ~ ~ ~ ~ ~ ~|~ ~ ~ ~|~|
 [E,E]>[E,E] [E,E]>[E,E] [E,E]2 z2 | [E,B,]2 [E,E]2 [E,B,]2 z2 | %11
w: Here am I, send me,|Lord, send me,|
 [A,E]>[A,E] [A,E]>[A,E] [A,E]2 z2 | [E,E]2 [B,,D]2 [E,E]2 z2 | [E,E]>[E,E] [E,E]>[E,E] [E,E]2 z2 | %14
w: Here am I, send me,|Lord, send me,|Here am I, send me,|
 [E,B,]2 [E,C]2 [E,B,]2 z2 | [A,E]>[A,E] [A,C]>[A,E] [E,E]2 [C,G,]2 |] [B,,B,]2 [B,,A,]2 [E,G,]4 |] %17
w: Lord, send me,|||

